FINK
CUT[AUFERSTEHN JA AUFERSTEHN]
REG[Europa, Mitteleuropa, Deutschland]
KEY[F1057  16 Eb 3/4]
MEL[  -5__1__-6__  -5__-7__1__
    2_.43__2__  1__-7__
    1__  -6__-5__1__  -6__-5__-4__  -3___.
    -3__1__-7_-6_  -5__-4#__-5__
    -5__-6__-7__  1_-712__1__  1__-7__0_
    1_  2__1__-7__  1_.23__0_
    1_  2__1__-7__  1___. //] >>
FCT[Trost - Lied]
